svg/fluentui-system-icons/ic_fluent_panel_left_header_20_filled.svg

<svg width="20" height="20" viewBox="0 0 20 20" fill="none" xmlns="http://www.w3.org/2000/svg">
<path d="M5 3C3.34375 3 2 4.34314 2 6V13C2 14.6569 3.34375 16 5 16H15C16.6562 16 18 14.6569 18 13V6C18 4.34314 16.6562 3 15 3H5ZM17 6V7H8.5V4H15C16.1055 4 17 4.89539 17 6ZM15 15H8.5V8H17V13C17 14.1046 16.1055 15 15 15Z" fill="#212121"/>
</svg>

<svg xmlns="http://www.w3.org/2000/svg" width="20" height="20"><path d="M5 3a3 3 0 0 0-3 3v7a3 3 0 0 0 3 3h10a3 3 0 0 0 3-3V6a3 3 0 0 0-3-3H5Zm12 3v1H8.5V4H15a2 2 0 0 1 2 2Zm-2 9H8.5V8H17v5a2 2 0 0 1-2 2Z"/></svg>
